X:1
T:Title
%%score ( 1 2 ) ( 3 4 )
L:1/8
Q:1/4=90
M:4/4
K:Eb
V:1 treble nm="Strings 1, Treble"
V:2 treble 
V:3 bass nm="Strings 1, Bass"
V:4 bass 
V:1
 z4 z2 [EG][FA] | [GB][GB][GB][EG] [GB]2 [B,E][B,F] | [EG][EG][EG][B,E] [EG]2 [DF][EG] | %3
w: 1.~In~ this~|world~ I~ found~ no~ rest,~ Sor row~|filled~ my~ ach ing~ breast,~ Till~ I~|
 [FA]>[FA] [FA][FA] [FA][Ac] [GB]>[FA] | [EG]6 [GB][GB] | [Ge]>[Fd] [Ge][Ac] [GB]2 [GB][GB] | %6
w: turned~ to~ One~ who~ loved~ me~ best~ of~|all;~ Oh,~ what~|sa cred~ peace~ I~ find,~ Since~ my~|
 [Ac][GB][EG]E [EG]2[Q:1/4=90] [B,E][B,F][Q:1/4=12] | [EG][GB][FA][EG] [DF]>[B,E] [B,E]<[EG] | %8
w: all~ I~ have~ re signed!~ I~ have~|left~ * all~ the~ world~ to~ fol low~|
 [DF]4 E2 E[EG] | [GB]2 [GB]>[GB] [Ac][GB][EG]E | B4 z4 | [FA]>[FA] [FA][FA] [FA][Ac] [GB]>[FA] | %12
w: Je sus.~ * *||||
 [EG]6 [GB][GB] | [Ge]>[Fd] [Ge][Ac] [GB]2 [GB][GB] | %14
w: ||
 [Ac][GB][EG]E [EG]2[Q:1/4=90] E[EF][Q:1/4=12] | [EG][GB][FA][EG] [DF]>[B,E] [B,E]<[EG] | %16
w: |left~ * all~ the~ world~ to~ fol low~|
 [DF]4 E2 z2 |] %17
w: Je sus.~|
V:2
 x8 | x8 | x8 | x8 | x8 | x8 | x8 | x8 | x8 | x8 | E3- [Ec] [EB]2 [DF][EG] | x8 | x8 | x8 | x8 | %15
 x8 | x8 |] %17
V:3
 z4 z2 [E,B,][E,B,] | [E,E][E,E][E,E][E,B,] [E,E]2 [E,G,][E,A,] | %2
 [E,B,][E,B,][E,B,][E,G,] [E,B,]2 [E,B,][E,B,] | %3
 [B,,B,]>[B,,B,] [B,,B,][B,,B,] [B,,B,][B,,B,] [B,,B,]>[B,,B,] | [E,B,]6 [E,E][E,E] | %5
 [E,B,]>[E,B,] [E,B,][E,E] [E,E]2 [E,E][E,E] | [E,E][E,E][E,B,][E,G,] [E,B,]2 [E,G,][E,A,] | %7
 [E,B,]2 [E,B,][E,B,] [B,,A,]>[B,,G,] [B,,G,]<[B,,B,] | [B,,A,]4 [E,G,]2 [E,G,][E,B,] | %9
 [E,E]2 [E,E]>[E,E] [E,E][E,E][E,B,][E,G,] | G,3 A, [E,G,]2 [E,B,][E,B,] | %11
 [B,,B,]>[B,,B,] [B,,B,][B,,B,] [B,,B,][B,,B,] [B,,B,]>[B,,B,] | [E,B,]6 [E,E][E,E] | %13
 [E,B,]>[E,B,] [E,B,][E,E] [E,E]2 [E,E][E,E] | [E,E][E,E][E,B,][E,G,] [E,B,]2 [E,G,][E,A,] | %15
 [E,B,]2 [E,B,][E,B,] [B,,A,]>[B,,G,] [B,,G,]<[B,,B,] | [B,,A,]4 [E,G,]2 z2 |] %17
V:4
 x8 | x8 | x8 | x8 | x8 | x8 | x8 | x8 | x8 | x8 | E,4 z4 | x8 | x8 | x8 | x8 | x8 | x8 |] %17

